images/uni.svg

<svg height="250" viewBox="0 0 250 250" width="250" xmlns="http://www.w3.org/2000/svg"><path d="m250 125c0 69.035156-55.964844 125-125 125s-125-55.964844-125-125 55.964844-125 125-125 125 55.964844 125 125zm0 0" fill="#fff"/><g fill="#ff007a"><path d="m125 250c-8.460938.003906-16.902344-.847656-25.195312-2.539062-23.945313-4.925782-45.917969-16.773438-63.195313-34.070313-11.40625-11.394531-20.5-24.886719-26.789063-39.734375-3.195312-7.558594-5.636718-15.417969-7.285156-23.460938-3.382812-16.625-3.382812-33.761718 0-50.386718 3.277344-15.988282 9.667969-31.175782 18.808594-44.695313 13.566406-20.097656 32.671875-35.828125 54.996094-45.289062 7.5625-3.195313 15.421875-5.636719 23.464844-7.285157 16.625-3.386718 33.757812-3.386718 50.382812 0 15.988281 3.277344 31.175781 9.667969 44.695312 18.808594 20.097657 13.570313 35.828126 32.671875 45.285157 55 3.195312 7.558594 5.636719 15.417969 7.285156 23.460938 3.386719 16.625 3.386719 33.761718 0 50.382812-3.273437 15.992188-9.664063 31.179688-18.808594 44.699219-13.566406 20.09375-32.667969 35.824219-54.992187 45.289063-7.5625 3.195312-15.421875 5.632812-23.464844 7.28125-8.289062 1.691406-16.726562 2.542968-25.1875 2.539062zm0-247.070312c-8.261719 0-16.503906.832031-24.601562 2.480468-15.617188 3.199219-30.449219 9.441406-43.652344 18.367188-19.628906 13.25-34.992188 31.90625-44.230469 53.710937-3.121094 7.386719-5.503906 15.0625-7.113281 22.914063-3.304688 16.234375-3.304688 32.96875 0 49.203125 3.199218 15.617187 9.441406 30.449219 18.371094 43.652343 13.246093 19.628907 31.90625 34.988282 53.710937 44.226563 7.382813 3.121094 15.058594 5.503906 22.914063 7.113281 16.234374 3.304688 32.964843 3.304688 49.199218 0 15.617188-3.199218 30.449219-9.441406 43.652344-18.367187 19.628906-13.25 34.992188-31.90625 44.230469-53.710938 3.121093-7.382812 5.503906-15.058593 7.113281-22.914062 3.304688-16.234375 3.304688-32.96875 0-49.203125-3.199219-15.613282-9.441406-30.449219-18.371094-43.652344-13.25-19.625-31.90625-34.988281-53.710937-44.226562-7.382813-3.121094-15.058594-5.503907-22.914063-7.113282-8.09375-1.648437-16.335937-2.480468-24.597656-2.480468zm0 0"/><path d="m96.839844 57.289062c-1.96875-.304687-2.050782-.339843-1.125-.488281 2.972656-.171875 5.957031.089844 8.855468.78125 6.738282 1.601563 12.878907 5.710938 19.433594 13.003907l1.738282 1.9375 2.488281-.402344c10.179687-1.722656 20.640625-.410156 30.078125 3.777344 2.398437 1.089843 4.679687 2.421874 6.808594 3.972656.324218.847656.535156 1.738281.628906 2.644531.664062 4.394531.332031 7.757813-1.011719 10.273437-.730469 1.367188-.773437 1.804688-.28125 2.976563.476563.984375 1.472656 1.617187 2.570313 1.625 2.21875 0 4.605468-3.589844 5.710937-8.574219l.4375-1.984375.871094.988281c4.773437 5.40625 8.523437 12.78125 9.167969 18.03125l.167968 1.367188-.800781-1.242188c-1.152344-1.902343-2.703125-3.53125-4.546875-4.777343-3.203125-2.117188-6.589844-2.839844-15.558594-3.3125-8.097656-.425781-12.683594-1.117188-17.226562-2.601563-7.734375-2.519531-11.632813-5.878906-20.820313-17.933594-2.746093-3.804687-5.792969-7.382812-9.109375-10.699218-5.707031-5.414063-11.308594-8.25-18.476562-9.363282zm0 0"/><path d="m166.941406 69.234375c.035156-2.785156.601563-5.539063 1.667969-8.113281.21875-.542969.488281-1.066406.808594-1.554688-.0625.480469-.1875.953125-.375 1.402344-.742188 2.703125-.859375 5.542969-.339844 8.300781.621094 4.234375.976563 4.84375 5.453125 9.417969 2.097656 2.148438 4.539062 4.851562 5.425781 6.015625l1.609375 2.109375-1.609375-1.507812c-2.355469-2.160157-4.859375-4.148438-7.496093-5.957032-.667969-.34375-.769532-.339844-1.183594.070313-.378906.378906-.460938.949219-.511719 3.644531-.082031 4.199219-.65625 6.894531-2.039063 9.589844-.746093 1.457031-.863281 1.144531-.1875-.5.503907-1.226563.558594-1.769532.554688-5.832032-.011719-8.167968-.976562-10.132812-6.664062-13.496093-1.441407-.851563-3.816407-2.082031-5.273438-2.734375-.890625-.355469-1.75-.777344-2.578125-1.257813 2.699219.570313 5.351563 1.347657 7.9375 2.316407 3.320313 1.277343 3.867187 1.441406 4.269531 1.289062.269532-.097656.402344-.882812.53125-3.203125zm0 0"/><path d="m100.664062 83.214844c-3.996093-5.503906-6.46875-13.933594-5.933593-20.242188l.164062-1.953125.910157.164063c2.105468.460937 4.136718 1.214844 6.03125 2.246094 3.785156 2.300781 5.421874 5.324218 7.089843 13.097656.488281 2.273437 1.128907 4.851562 1.425781 5.722656 1.007813 2.390625 2.253907 4.671875 3.722657 6.8125 1.050781 1.535156.351562 2.261719-1.96875 2.050781-3.542969-.320312-8.34375-3.632812-11.441407-7.898437zm0 0"/><path d="m162.101562 124.160156c-18.675781-7.519531-25.253906-14.046875-25.253906-25.058594-.039062-.984374 0-1.96875.125-2.945312.5625.355469 1.097656.753906 1.605469 1.1875 3.785156 3.035156 8.027344 4.332031 19.765625 6.046875 6.910156 1.007813 10.796875 1.820313 14.382812 3.011719 11.398438 3.78125 18.449219 11.453125 20.132813 21.898437.445313 3.917969.246094 7.878907-.585937 11.730469-.628907 2.371094-2.539063 6.640625-3.042969 6.804688-.140625.046874-.277344-.488282-.3125-1.222657-.304688-4.140625-2.292969-7.972656-5.503907-10.605469-3.796874-3.25-8.882812-5.84375-21.3125-10.847656zm0 0"/><path d="m148.984375 127.285156c-.21875-1.335937-.519531-2.65625-.902344-3.953125l-.476562-1.417969.886719.992188c1.355468 1.609375 2.378906 3.472656 3.011718 5.476562.625 1.789063.695313 2.320313.691406 5.226563 0 2.851563-.082031 3.449219-.660156 5.058594-.804687 2.371093-2.15625 4.519531-3.941406 6.269531-3.414062 3.472656-7.796875 5.394531-14.128906 6.191406-1.097656.140625-4.304688.375-7.128906.519532-7.101563.371093-11.777344 1.132812-15.980469 2.609374-.378907.167969-.785157.265626-1.195313.285157-.171875-.167969 2.6875-1.875 5.050782-3.011719 3.332031-1.605469 6.648437-2.480469 14.078124-3.71875 3.671876-.609375 7.460938-1.351562 8.425782-1.648438 9.09375-2.785156 13.765625-9.980468 12.269531-18.878906zm0 0"/><path d="m157.546875 142.488281c-2.484375-5.335937-3.050781-10.484375-1.691406-15.285156.144531-.515625.378906-.933594.519531-.933594.464844.167969.902344.40625 1.300781.703125 1.140625.769532 3.4375 2.066406 9.546875 5.398438 7.621094 4.15625 11.96875 7.375 14.925782 11.050781 2.617187 3.289063 4.328124 7.203125 4.960937 11.359375.386719 3.730469.226563 7.496094-.46875 11.179688-1.769531 7.675781-6.714844 14.234374-13.605469 18.050781-.640625.367187-1.304687.699219-1.988281.984375.164063-.71875.4375-1.410156.808594-2.050782 2.273437-4.546874 2.566406-9.828124.816406-14.597656-1.058594-3.167968-3.214844-7.03125-7.570313-13.566406-5.066406-7.59375-6.308593-9.613281-7.554687-12.292969zm0 0"/><path d="m87.398438 171.265625c6.933593-5.851563 15.554687-10.007813 23.410156-11.285156 4.050781-.523438 8.160156-.363281 12.160156.472656 5.023438 1.285156 9.515625 4.164063 11.855469 7.597656 2.28125 3.351563 3.261719 6.273438 4.28125 12.777344.40625 2.5625.84375 5.140625.976562 5.722656.769531 3.371094 2.257813 6.066407 4.101563 7.417969 2.9375 2.148438 7.992187 2.28125 12.960937.34375.519531-.242188 1.066407-.410156 1.628907-.507812.179687.179687-2.324219 1.855468-4.089844 2.734374-2.082032 1.117188-4.414063 1.683594-6.777344 1.648438-4.554688 0-8.335938-2.316406-11.488281-7.042969-1.160157-1.996093-2.195313-4.0625-3.101563-6.183593-3.328125-7.597657-4.976562-9.910157-8.839844-12.445313-3.242187-2.195313-7.386718-2.570313-10.972656-.996094-2.011718.933594-3.472656 2.757813-3.949218 4.929688-.472657 2.167969.097656 4.4375 1.539062 6.125 1.433594 1.492187 3.3125 2.476562 5.359375 2.804687 1.644531.21875 3.300781-.289062 4.542969-1.390625 1.246094-1.097656 1.949218-2.683593 1.929687-4.34375 0-2.28125-.878906-3.585937-3.085937-4.582031-3.015625-1.363281-6.257813.230469-6.246094 3.0625-.046875 1.136719.667969 2.160156 1.746094 2.515625.78125.351563.796875.378906.160156.25-2.765625-.574219-3.417969-3.914063-1.1875-6.128906 2.671875-2.660157 8.203125-1.488281 10.09375 2.148437.8125 2.042969.882812 4.308594.195312 6.394532-1.554687 4.101562-6.089843 6.265624-10.691406 5.089843-3.132812-.800781-4.410156-1.664062-8.1875-5.554687-6.5625-6.761719-9.109375-8.074219-18.570312-9.550782l-1.816406-.28125zm0 0"/><path d="m60.878906 52.046875c21.917969 26.601563 32.742188 35.789063 34.417969 38.109375 1.386719 1.914062.863281 3.636719-1.507813 4.980469-1.679687.851562-3.511718 1.367187-5.390624 1.515625-1.695313-.066406-3.308594-.757813-4.527344-1.9375-.890625-.84375-4.484375-6.210938-12.785156-19.09375-6.347657-9.855469-11.667969-18.027344-11.8125-18.164063-.335938-.316406-.328126-.304687 11.164062 20.261719 7.214844 12.910156 9.652344 17.480469 9.652344 18.085938 0 1.242187-.339844 1.894531-1.871094 3.605468-2.554688 2.847656-3.695312 6.054688-4.519531 12.675782-.921875 7.421874-3.519531 12.671874-10.71875 21.648437-4.214844 5.257813-4.90625 6.21875-5.96875 8.339844-1.25 2.308593-1.890625 4.902343-1.855469 7.53125-.214844 3.140625.207031 6.292969 1.238281 9.265625 1.042969 3.171875 2.554688 6.167968 4.492188 8.886718 2.191406 3.398438 3.457031 5.921876 3.457031 6.910157 0 .78125.148438.789062 3.550781.019531 8.132813-1.835938 14.738281-5.066406 18.457031-9.027344 2.296876-2.453125 2.835938-3.804687 2.855469-7.164062.011719-2.195313-.066406-2.65625-.660156-3.917969-.964844-2.058594-2.726563-3.769531-6.605469-6.417969-5.078125-3.476562-7.25-6.273437-7.851562-10.117187-.488282-3.15625.082031-5.382813 2.890625-11.277344 2.910156-6.097656 3.632812-8.695313 4.121093-14.839844.3125-3.972656.75-5.539062 1.890626-6.796875 1.191406-1.3125 2.261718-1.757812 5.207031-2.15625 4.800781-.65625 7.859375-1.898437 10.375-4.214844 2.03125-1.699218 3.214843-4.210937 3.230469-6.859374l.109374-2.210938-1.21875-1.417969c-4.425781-5.148437-42.769531-40.269531-43.042968-40.269531-.058594 0 1.394531 1.824219 3.226562 4.046875zm5.9375 101.582031c.996094-1.765625.476563-4.003906-1.199218-5.144531-1.578126-1.050781-4.027344-.558594-4.027344.808594 0 .417969.230468.722656.75.988281.878906.449219.9375.957031.25 1.992188-.6875 1.035156-.640625 1.96875.15625 2.59375 1.289062 1.007812 3.113281.457031 4.070312-1.238282zm0 0" fill-rule="evenodd"/><path d="m104.929688 104.125c-2.492188.953125-4.390626 3.023438-5.121094 5.585938-.414063 1.53125-.179688 4.210937.441406 5.039062 1 1.335938 1.96875 1.6875 4.589844 1.671875 5.132812-.039063 9.59375-2.238281 10.113281-4.992187.425781-2.253907-1.535156-5.382813-4.234375-6.753907-1.832031-.75-3.847656-.941406-5.789062-.550781zm6.003906 4.6875c.789062-1.125.445312-2.34375-.902344-3.160156-2.5625-1.5625-6.445312-.269532-6.445312 2.148437 0 1.207031 2.023437 2.519531 3.875 2.519531 1.308593-.027343 2.554687-.566406 3.472656-1.5zm0 0" fill-rule="evenodd"/></g></svg>

<svg xmlns="http://www.w3.org/2000/svg" xmlns:xlink="http://www.w3.org/1999/xlink" width="250px" height="250px" viewBox="0 0 250 250" version="1.1">
<g id="surface1">
<path style=" stroke:none;fill-rule:nonzero;fill:rgb(100%,100%,100%);fill-opacity:1;" d="M 250 125 C 250 194.035156 194.035156 250 125 250 C 55.964844 250 0 194.035156 0 125 C 0 55.964844 55.964844 0 125 0 C 194.035156 0 250 55.964844 250 125 Z M 250 125 "/>
<path style=" stroke:none;fill-rule:nonzero;fill:rgb(100%,0%,47.843137%);fill-opacity:1;" d="M 125 250 C 116.539062 250.003906 108.097656 249.152344 99.804688 247.460938 C 75.859375 242.535156 53.886719 230.6875 36.609375 213.390625 C 25.203125 201.996094 16.109375 188.503906 9.820312 173.65625 C 6.625 166.097656 4.183594 158.238281 2.535156 150.195312 C -0.847656 133.570312 -0.847656 116.433594 2.535156 99.808594 C 5.8125 83.820312 12.203125 68.632812 21.34375 55.113281 C 34.910156 35.015625 54.015625 19.285156 76.339844 9.824219 C 83.902344 6.628906 91.761719 4.1875 99.804688 2.539062 C 116.429688 -0.847656 133.5625 -0.847656 150.1875 2.539062 C 166.175781 5.816406 181.363281 12.207031 194.882812 21.347656 C 214.980469 34.917969 230.710938 54.019531 240.167969 76.347656 C 243.363281 83.90625 245.804688 91.765625 247.453125 99.808594 C 250.839844 116.433594 250.839844 133.570312 247.453125 150.191406 C 244.179688 166.183594 237.789062 181.371094 228.644531 194.890625 C 215.078125 214.984375 195.976562 230.714844 173.652344 240.179688 C 166.089844 243.375 158.230469 245.8125 150.1875 247.460938 C 141.898438 249.152344 133.460938 250.003906 125 250 Z M 125 2.929688 C 116.738281 2.929688 108.496094 3.761719 100.398438 5.410156 C 84.78125 8.609375 69.949219 14.851562 56.746094 23.777344 C 37.117188 37.027344 21.753906 55.683594 12.515625 77.488281 C 9.394531 84.875 7.011719 92.550781 5.402344 100.402344 C 2.097656 116.636719 2.097656 133.371094 5.402344 149.605469 C 8.601562 165.222656 14.84375 180.054688 23.773438 193.257812 C 37.019531 212.886719 55.679688 228.246094 77.484375 237.484375 C 84.867188 240.605469 92.542969 242.988281 100.398438 244.597656 C 116.632812 247.902344 133.363281 247.902344 149.597656 244.597656 C 165.214844 241.398438 180.046875 235.15625 193.25 226.230469 C 212.878906 212.980469 228.242188 194.324219 237.480469 172.519531 C 240.601562 165.136719 242.984375 157.460938 244.59375 149.605469 C 247.898438 133.371094 247.898438 116.636719 244.59375 100.402344 C 241.394531 84.789062 235.152344 69.953125 226.222656 56.75 C 212.972656 37.125 194.316406 21.761719 172.511719 12.523438 C 165.128906 9.402344 157.453125 7.019531 149.597656 5.410156 C 141.503906 3.761719 133.261719 2.929688 125 2.929688 Z M 125 2.929688 "/>
<path style=" stroke:none;fill-rule:nonzero;fill:rgb(100%,0%,47.843137%);fill-opacity:1;" d="M 96.839844 57.289062 C 94.871094 56.984375 94.789062 56.949219 95.714844 56.800781 C 98.6875 56.628906 101.671875 56.890625 104.570312 57.582031 C 111.308594 59.183594 117.449219 63.292969 124.003906 70.585938 L 125.742188 72.523438 L 128.230469 72.121094 C 138.410156 70.398438 148.871094 71.710938 158.308594 75.898438 C 160.707031 76.988281 162.988281 78.320312 165.117188 79.871094 C 165.441406 80.71875 165.652344 81.609375 165.746094 82.515625 C 166.410156 86.910156 166.078125 90.273438 164.734375 92.789062 C 164.003906 94.15625 163.960938 94.59375 164.453125 95.765625 C 164.929688 96.75 165.925781 97.382812 167.023438 97.390625 C 169.242188 97.390625 171.628906 93.800781 172.734375 88.816406 L 173.171875 86.832031 L 174.042969 87.820312 C 178.816406 93.226562 182.566406 100.601562 183.210938 105.851562 L 183.378906 107.21875 L 182.578125 105.976562 C 181.425781 104.074219 179.875 102.445312 178.03125 101.199219 C 174.828125 99.082031 171.441406 98.359375 162.472656 97.886719 C 154.375 97.460938 149.789062 96.769531 145.246094 95.285156 C 137.511719 92.765625 133.613281 89.40625 124.425781 77.351562 C 121.679688 73.546875 118.632812 69.96875 115.316406 66.652344 C 109.609375 61.238281 104.007812 58.402344 96.839844 57.289062 Z M 96.839844 57.289062 "/>
<path style=" stroke:none;fill-rule:nonzero;fill:rgb(100%,0%,47.843137%);fill-opacity:1;" d="M 166.941406 69.234375 C 166.976562 66.449219 167.542969 63.695312 168.609375 61.121094 C 168.828125 60.578125 169.097656 60.054688 169.417969 59.566406 C 169.355469 60.046875 169.230469 60.519531 169.042969 60.96875 C 168.300781 63.671875 168.183594 66.511719 168.703125 69.269531 C 169.324219 73.503906 169.679688 74.113281 174.15625 78.6875 C 176.253906 80.835938 178.695312 83.539062 179.582031 84.703125 L 181.191406 86.8125 L 179.582031 85.304688 C 177.226562 83.144531 174.722656 81.15625 172.085938 79.347656 C 171.417969 79.003906 171.316406 79.007812 170.902344 79.417969 C 170.523438 79.796875 170.441406 80.367188 170.390625 83.0625 C 170.308594 87.261719 169.734375 89.957031 168.351562 92.652344 C 167.605469 94.109375 167.488281 93.796875 168.164062 92.152344 C 168.667969 90.925781 168.722656 90.382812 168.71875 86.320312 C 168.707031 78.152344 167.742188 76.1875 162.054688 72.824219 C 160.613281 71.972656 158.238281 70.742188 156.78125 70.089844 C 155.890625 69.734375 155.03125 69.3125 154.203125 68.832031 C 156.902344 69.402344 159.554688 70.179688 162.140625 71.148438 C 165.460938 72.425781 166.007812 72.589844 166.410156 72.4375 C 166.679688 72.339844 166.8125 71.554688 166.941406 69.234375 Z M 166.941406 69.234375 "/>
<path style=" stroke:none;fill-rule:nonzero;fill:rgb(100%,0%,47.843137%);fill-opacity:1;" d="M 100.664062 83.214844 C 96.667969 77.710938 94.195312 69.28125 94.730469 62.972656 L 94.894531 61.019531 L 95.804688 61.183594 C 97.910156 61.644531 99.941406 62.398438 101.835938 63.429688 C 105.621094 65.730469 107.257812 68.753906 108.925781 76.527344 C 109.414062 78.800781 110.054688 81.378906 110.351562 82.25 C 111.359375 84.640625 112.605469 86.921875 114.074219 89.0625 C 115.125 90.597656 114.425781 91.324219 112.105469 91.113281 C 108.5625 90.792969 103.761719 87.480469 100.664062 83.214844 Z M 100.664062 83.214844 "/>
<path style=" stroke:none;fill-rule:nonzero;fill:rgb(100%,0%,47.843137%);fill-opacity:1;" d="M 162.101562 124.160156 C 143.425781 116.640625 136.847656 110.113281 136.847656 99.101562 C 136.808594 98.117188 136.847656 97.132812 136.972656 96.15625 C 137.535156 96.511719 138.070312 96.910156 138.578125 97.34375 C 142.363281 100.378906 146.605469 101.675781 158.34375 103.390625 C 165.253906 104.398438 169.140625 105.210938 172.726562 106.402344 C 184.125 110.183594 191.175781 117.855469 192.859375 128.300781 C 193.304688 132.21875 193.105469 136.179688 192.273438 140.03125 C 191.644531 142.402344 189.734375 146.671875 189.230469 146.835938 C 189.089844 146.882812 188.953125 146.347656 188.917969 145.613281 C 188.613281 141.472656 186.625 137.640625 183.414062 135.007812 C 179.617188 131.757812 174.53125 129.164062 162.101562 124.160156 Z M 162.101562 124.160156 "/>
<path style=" stroke:none;fill-rule:nonzero;fill:rgb(100%,0%,47.843137%);fill-opacity:1;" d="M 148.984375 127.285156 C 148.765625 125.949219 148.464844 124.628906 148.082031 123.332031 L 147.605469 121.914062 L 148.492188 122.90625 C 149.847656 124.515625 150.871094 126.378906 151.503906 128.382812 C 152.128906 130.171875 152.199219 130.703125 152.195312 133.609375 C 152.195312 136.460938 152.113281 137.058594 151.535156 138.667969 C 150.730469 141.039062 149.378906 143.1875 147.59375 144.9375 C 144.179688 148.410156 139.796875 150.332031 133.464844 151.128906 C 132.367188 151.269531 129.160156 151.503906 126.335938 151.648438 C 119.234375 152.019531 114.558594 152.78125 110.355469 154.257812 C 109.976562 154.425781 109.570312 154.523438 109.160156 154.542969 C 108.988281 154.375 111.847656 152.667969 114.210938 151.53125 C 117.542969 149.925781 120.859375 149.050781 128.289062 147.8125 C 131.960938 147.203125 135.75 146.460938 136.714844 146.164062 C 145.808594 143.378906 150.480469 136.183594 148.984375 127.285156 Z M 148.984375 127.285156 "/>
<path style=" stroke:none;fill-rule:nonzero;fill:rgb(100%,0%,47.843137%);fill-opacity:1;" d="M 157.546875 142.488281 C 155.0625 137.152344 154.496094 132.003906 155.855469 127.203125 C 156 126.6875 156.234375 126.269531 156.375 126.269531 C 156.839844 126.4375 157.277344 126.675781 157.675781 126.972656 C 158.816406 127.742188 161.113281 129.039062 167.222656 132.371094 C 174.84375 136.527344 179.191406 139.746094 182.148438 143.421875 C 184.765625 146.710938 186.476562 150.625 187.109375 154.78125 C 187.496094 158.511719 187.335938 162.277344 186.640625 165.960938 C 184.871094 173.636719 179.925781 180.195312 173.035156 184.011719 C 172.394531 184.378906 171.730469 184.710938 171.046875 184.996094 C 171.210938 184.277344 171.484375 183.585938 171.855469 182.945312 C 174.128906 178.398438 174.421875 173.117188 172.671875 168.347656 C 171.613281 165.179688 169.457031 161.316406 165.101562 154.78125 C 160.035156 147.1875 158.792969 145.167969 157.546875 142.488281 Z M 157.546875 142.488281 "/>
<path style=" stroke:none;fill-rule:nonzero;fill:rgb(100%,0%,47.843137%);fill-opacity:1;" d="M 87.398438 171.265625 C 94.332031 165.414062 102.953125 161.257812 110.808594 159.980469 C 114.859375 159.457031 118.96875 159.617188 122.96875 160.453125 C 127.992188 161.738281 132.484375 164.617188 134.824219 168.050781 C 137.105469 171.402344 138.085938 174.324219 139.105469 180.828125 C 139.511719 183.390625 139.949219 185.96875 140.082031 186.550781 C 140.851562 189.921875 142.339844 192.617188 144.183594 193.96875 C 147.121094 196.117188 152.175781 196.25 157.144531 194.3125 C 157.664062 194.070312 158.210938 193.902344 158.773438 193.804688 C 158.953125 193.984375 156.449219 195.660156 154.683594 196.539062 C 152.601562 197.65625 150.269531 198.222656 147.90625 198.1875 C 143.351562 198.1875 139.570312 195.871094 136.417969 191.144531 C 135.257812 189.148438 134.222656 187.082031 133.316406 184.960938 C 129.988281 177.363281 128.339844 175.050781 124.476562 172.515625 C 121.234375 170.320312 117.089844 169.945312 113.503906 171.519531 C 111.492188 172.453125 110.03125 174.277344 109.554688 176.449219 C 109.082031 178.617188 109.652344 180.886719 111.09375 182.574219 C 112.527344 184.066406 114.40625 185.050781 116.453125 185.378906 C 118.097656 185.597656 119.753906 185.089844 120.996094 183.988281 C 122.242188 182.890625 122.945312 181.304688 122.925781 179.644531 C 122.925781 177.363281 122.046875 176.058594 119.839844 175.0625 C 116.824219 173.699219 113.582031 175.292969 113.59375 178.125 C 113.546875 179.261719 114.261719 180.285156 115.339844 180.640625 C 116.121094 180.992188 116.136719 181.019531 115.5 180.890625 C 112.734375 180.316406 112.082031 176.976562 114.3125 174.761719 C 116.984375 172.101562 122.515625 173.273438 124.40625 176.910156 C 125.21875 178.953125 125.289062 181.21875 124.601562 183.304688 C 123.046875 187.40625 118.511719 189.570312 113.910156 188.394531 C 110.777344 187.59375 109.5 186.730469 105.722656 182.839844 C 99.160156 176.078125 96.613281 174.765625 87.152344 173.289062 L 85.335938 173.007812 Z M 87.398438 171.265625 "/>
<path style=" stroke:none;fill-rule:evenodd;fill:rgb(100%,0%,47.843137%);fill-opacity:1;" d="M 60.878906 52.046875 C 82.796875 78.648438 93.621094 87.835938 95.296875 90.15625 C 96.683594 92.070312 96.160156 93.792969 93.789062 95.136719 C 92.109375 95.988281 90.277344 96.503906 88.398438 96.652344 C 86.703125 96.585938 85.089844 95.894531 83.871094 94.714844 C 82.980469 93.871094 79.386719 88.503906 71.085938 75.621094 C 64.738281 65.765625 59.417969 57.59375 59.273438 57.457031 C 58.9375 57.140625 58.945312 57.152344 70.4375 77.71875 C 77.652344 90.628906 80.089844 95.199219 80.089844 95.804688 C 80.089844 97.046875 79.75 97.699219 78.21875 99.410156 C 75.664062 102.257812 74.523438 105.464844 73.699219 112.085938 C 72.777344 119.507812 70.179688 124.757812 62.980469 133.734375 C 58.765625 138.992188 58.074219 139.953125 57.011719 142.074219 C 55.761719 144.382812 55.121094 146.976562 55.15625 149.605469 C 54.941406 152.746094 55.363281 155.898438 56.394531 158.871094 C 57.4375 162.042969 58.949219 165.039062 60.886719 167.757812 C 63.078125 171.15625 64.34375 173.679688 64.34375 174.667969 C 64.34375 175.449219 64.492188 175.457031 67.894531 174.6875 C 76.027344 172.851562 82.632812 169.621094 86.351562 165.660156 C 88.648438 163.207031 89.1875 161.855469 89.207031 158.496094 C 89.21875 156.300781 89.140625 155.839844 88.546875 154.578125 C 87.582031 152.519531 85.820312 150.808594 81.941406 148.160156 C 76.863281 144.683594 74.691406 141.886719 74.089844 138.042969 C 73.601562 134.886719 74.171875 132.660156 76.980469 126.765625 C 79.890625 120.667969 80.613281 118.070312 81.101562 111.925781 C 81.414062 107.953125 81.851562 106.386719 82.992188 105.128906 C 84.183594 103.816406 85.253906 103.371094 88.199219 102.972656 C 93 102.316406 96.058594 101.074219 98.574219 98.757812 C 100.605469 97.058594 101.789062 94.546875 101.804688 91.898438 L 101.914062 89.6875 L 100.695312 88.269531 C 96.269531 83.121094 57.925781 48 57.652344 48 C 57.59375 48 59.046875 49.824219 60.878906 52.046875 Z M 66.816406 153.628906 C 67.8125 151.863281 67.292969 149.625 65.617188 148.484375 C 64.039062 147.433594 61.589844 147.925781 61.589844 149.292969 C 61.589844 149.710938 61.820312 150.015625 62.339844 150.28125 C 63.21875 150.730469 63.277344 151.238281 62.589844 152.273438 C 61.902344 153.308594 61.949219 154.242188 62.746094 154.867188 C 64.035156 155.875 65.859375 155.324219 66.816406 153.628906 Z M 66.816406 153.628906 "/>
<path style=" stroke:none;fill-rule:evenodd;fill:rgb(100%,0%,47.843137%);fill-opacity:1;" d="M 104.929688 104.125 C 102.4375 105.078125 100.539062 107.148438 99.808594 109.710938 C 99.394531 111.242188 99.628906 113.921875 100.25 114.75 C 101.25 116.085938 102.21875 116.4375 104.839844 116.421875 C 109.972656 116.382812 114.433594 114.183594 114.953125 111.429688 C 115.378906 109.175781 113.417969 106.046875 110.71875 104.675781 C 108.886719 103.925781 106.871094 103.734375 104.929688 104.125 Z M 110.933594 108.8125 C 111.722656 107.6875 111.378906 106.46875 110.03125 105.652344 C 107.46875 104.089844 103.585938 105.382812 103.585938 107.800781 C 103.585938 109.007812 105.609375 110.320312 107.460938 110.320312 C 108.769531 110.292969 110.015625 109.753906 110.933594 108.820312 Z M 110.933594 108.8125 "/>
</g>
</svg>
